style/luts/crowley-noir.cube
LUT_3D_SIZE 9
0.000000 0.024884 0.082384
0.002902 0.023383 0.079411
0.030390 0.024471 0.079130
0.064381 0.027485 0.080871
0.104922 0.032225 0.084425
0.152197 0.038578 0.089671
0.206461 0.046453 0.096505
0.268015 0.055748 0.104820
0.337187 0.066343 0.114483
0.000000 0.055322 0.081963
0.024781 0.063059 0.086145
0.066186 0.072469 0.091980
0.114330 0.083471 0.099367
0.169481 0.095971 0.108189
0.231933 0.109849 0.118306
0.301998 0.124952 0.129540
0.379997 0.141085 0.141676
0.466257 0.158007 0.154452
0.016624 0.122621 0.102419
0.065105 0.138401 0.111731
0.120542 0.155643 0.122277
0.183206 0.174193 0.133867
0.253379 0.193852 0.146269
0.331347 0.214377 0.159203
0.417399 0.235475 0.172344
0.511825 0.256804 0.185314
0.614918 0.277973 0.197687
0.057752 0.225857 0.138301
0.119726 0.249134 0.150932
0.188996 0.273354 0.163982
0.265811 0.298220 0.177107
0.350416 0.323386 0.189911
0.443066 0.348455 0.201952
0.544017 0.372989 0.212744
0.653540 0.396508 0.221759
0.771925 0.418502 0.228440
0.106087 0.363731 0.181828
0.180389 0.392834 0.194408
0.262080 0.421908 0.206053
0.351378 0.450512 0.216260
0.448518 0.478167 0.224492
0.553753 0.504364 0.230179
0.667366 0.528570 0.232727
0.789676 0.550241 0.231532
0.921049 0.568825 0.225983
0.148746 0.531190 0.219515
0.232913 0.563097 0.226888
0.324381 0.593620 0.231501
0.423403 0.622234 0.232758
0.530272 0.648403 0.230048
0.645327 0.671588 0.222762
0.768969 0.691258 0.210292
0.901660 0.706893 0.192048
1.000000 0.717994 0.167457
0.167228 0.719514 0.232263
0.257971 0.750325 0.227957
0.356002 0.778267 0.218853
0.461700 0.802823 0.204349
0.575508 0.823495 0.183860
0.697946 0.839804 0.156820
0.829606 0.851295 0.122691
0.971161 0.857543 0.080960
1.000000 0.858148 0.031141
0.139677 0.918579 0.197613
0.233838 0.944472 0.174803
0.335652 0.966185 0.145244
0.445699 0.983286 0.108404
0.564635 0.995372 0.063783
0.693198 1.000000 0.010905
0.832199 1.000000 0.000000
0.982526 0.997902 0.000000
1.000000 0.986402 0.000000
0.044211 1.000000 0.093086
0.139688 1.000000 0.045512
0.243750 1.000000 0.000000
0.357195 1.000000 0.000000
0.480891 1.000000 0.000000
0.615774 1.000000 0.000000
0.762837 1.000000 0.000000
0.923122 1.000000 0.000000
1.000000 1.000000 0.000000
0.000000 0.023966 0.100439
0.004137 0.023516 0.100748
0.033079 0.025291 0.103439
0.068494 0.028907 0.108129
0.110482 0.034206 0.114666
0.159254 0.041087 0.122951
0.215078 0.049456 0.132896
0.278259 0.059208 0.144398
0.349131 0.070210 0.157329
0.000000 0.057757 0.110301
0.028070 0.066071 0.117485
0.070878 0.076031 0.126385
0.120475 0.087553 0.136909
0.177134 0.100536 0.148948
0.241153 0.114850 0.162361
0.312843 0.130326 0.176971
0.392522 0.146756 0.192561
0.480515 0.163884 0.208866
0.020204 0.127808 0.141124
0.070065 0.144099 0.153680
0.126924 0.161805 0.167552
0.191053 0.180756 0.182546
0.262732 0.200739 0.198430
0.342242 0.221494 0.214919
0.429870 0.242711 0.231684
0.525902 0.264032 0.248343
0.630628 0.285049 0.264467
0.062470 0.233640 0.188240
0.125763 0.257267 0.204379
0.196375 0.281743 0.221010
0.274547 0.306752 0.237783
0.360525 0.331931 0.254299
0.454558 0.356870 0.270114
0.556903 0.381115 0.284739
0.667832 0.404175 0.297650
0.787637 0.425530 0.308289
0.110919 0.373592 0.243848
0.186348 0.402732 0.260162
0.269163 0.431698 0.275603
0.359581 0.460035 0.289667
0.457838 0.487253 0.301816
0.564193 0.512835 0.311486
0.678935 0.536242 0.318092
0.802395 0.556926 0.321037
0.934950 0.574337 0.319723
0.152057 0.542149 0.294341
0.237043 0.573644 0.305654
0.329321 0.603579 0.314277
0.429151 0.631422 0.319619
0.536837 0.656638 0.321083
0.652734 0.678689 0.318071
0.777258 0.697046 0.309995
0.910891 0.711196 0.296281
1.000000 0.720648 0.276377
0.166911 0.730267 0.320633
0.258131 0.760162 0.320536
0.356654 0.787011 0.315748
0.462876 0.810304 0.305684
0.577263 0.829546 0.289780
0.700351 0.844269 0.267490
0.832758 0.854026 0.238297
0.975177 0.858400 0.201711
1.000000 0.857003 0.157269
0.133469 0.927813 0.300599
0.227835 0.952337 0.282432
0.329921 0.972530 0.257687
0.440329 0.987972 0.225858
0.559738 0.998269 0.186464
0.688907 1.000000 0.139052
0.828669 1.000000 0.083193
0.979931 0.994727 0.018479
1.000000 0.980991 0.000000
0.030018 1.000000 0.212416
0.125568 1.000000 0.170154
0.229830 1.000000 0.119715
0.343622 1.000000 0.060679
0.467832 1.000000 0.000000
0.603411 1.000000 0.000000
0.751366 1.000000 0.000000
0.912748 1.000000 0.000000
1.000000 1.000000 0.000000
0.000000 0.023512 0.120452
0.005619 0.023897 0.123861
0.035987 0.026323 0.129526
0.072820 0.030524 0.137199
0.116262 0.036370 0.146766
0.166539 0.043767 0.158149
0.223931 0.052619 0.171269
0.288750 0.062811 0.186028
0.361330 0.074202 0.202300
0.000000 0.060391 0.140467
0.031544 0.069273 0.150704
0.075758 0.079774 0.162729
0.126812 0.091805 0.176458
0.184985 0.105256 0.191784
0.250573 0.119985 0.208569
0.323888 0.135811 0.226636
0.405246 0.152509 0.245764
0.494970 0.169808 0.265683
0.023929 0.133173 0.181859
0.075168 0.149961 0.197735
0.133447 0.168111 0.215009
0.199037 0.187439 0.233490
0.272214 0.207715 0.252940
0.353257 0.228665 0.273072
0.442448 0.249960 0.293551
0.540070 0.271225 0.313992
0.646411 0.292039 0.333966
0.067257 0.241551 0.240473
0.131856 0.265499 0.260207
0.203793 0.290193 0.280506
0.283305 0.315303 0.301019
0.370634 0.340449 0.321342
0.466027 0.365205 0.341030
0.569742 0.389105 0.359592
0.682051 0.411645 0.376505
0.803252 0.432298 0.391218
0.115682 0.383481 0.308462
0.192211 0.412611 0.328608
0.276121 0.441416 0.347945
0.367629 0.469429 0.365969
0.466974 0.496151 0.382146
0.574419 0.521055 0.395917
0.690263 0.543599 0.406704
0.814847 0.563233 0.413922
0.948564 0.579408 0.416986
0.155103 0.552988 0.372101
0.240874 0.584011 0.387469
0.333927 0.613296 0.400220
0.434533 0.640307 0.409776
0.543008 0.664508 0.415549
0.659722 0.685363 0.416958
0.785108 0.702348 0.413430
0.919669 0.714957 0.404414
1.000000 0.722706 0.389375
0.166101 0.740729 0.412346
0.257766 0.769648 0.416597
0.356753 0.795346 0.416274
0.463477 0.817317 0.410812
0.578424 0.835076 0.399663
0.702152 0.848160 0.382306
0.835300 0.856135 0.358244
0.978585 0.858592 0.327011
1.000000 0.855150 0.288164
0.126545 0.936600 0.407439
0.221095 0.959702 0.394089
0.323439 0.978328 0.374347
0.434200 0.992065 0.347728
0.554080 1.000000 0.313772
0.683859 1.000000 0.272049
0.824392 1.000000 0.222149
0.976603 0.990805 0.163684
1.000000 0.974797 0.096277
0.014916 1.000000 0.336238
0.110533 1.000000 0.299503
0.214996 1.000000 0.254849
0.329141 1.000000 0.201876
0.453875 1.000000 0.140198
0.590164 1.000000 0.069443
0.739028 1.000000 0.000000
0.901522 1.000000 0.000000
1.000000 1.000000 0.000000
0.000000 0.023384 0.142298
0.007331 0.024510 0.148751
0.039107 0.027558 0.157410
0.077359 0.032330 0.168105
0.122258 0.038713 0.180755
0.174049 0.046615 0.195297
0.233019 0.055936 0.211659
0.299485 0.066554 0.229749
0.373781 0.078313 0.249440
0.000000 0.063221 0.172488
0.035198 0.072662 0.185834
0.080823 0.083693 0.201048
0.133339 0.096220 0.218051
0.193028 0.110123 0.236740
0.260188 0.125247 0.256977
0.335128 0.141396 0.278583
0.418163 0.158331 0.301333
0.509611 0.175763 0.324957
0.027794 0.138712 0.224666
0.080408 0.155980 0.243937
0.140104 0.174553 0.264695
0.207148 0.194231 0.286746
0.281815 0.214770 0.309849
0.364380 0.235876 0.333713
0.455120 0.257205 0.358000
0.554316 0.278367 0.382321
0.662254 0.298924 0.406243
0.072100 0.249581 0.295049
0.137992 0.273817 0.318465
0.211236 0.298692 0.342525
0.292067 0.323859 0.366872
0.380725 0.348923 0.391101
0.477455 0.373442 0.414762
0.582514 0.396938 0.437368
0.696179 0.418898 0.458396
0.818751 0.438785 0.477300
0.120357 0.393382 0.375729
0.197960 0.422452 0.399806
0.282935 0.451043 0.423141
0.375502 0.478675 0.445234
0.475905 0.504839 0.465554
0.584411 0.529003 0.483545
0.701330 0.550621 0.498642
0.827014 0.569142 0.510270
0.961872 0.584017 0.517859
0.157861 0.563686 0.452866
0.244382 0.594178 0.472403
0.338177 0.622751 0.489407
0.439528 0.648868 0.503307
0.548764 0.671992 0.513530
0.666271 0.691591 0.519510
0.792501 0.707145 0.520693
0.927976 0.718157 0.516546
1.000000 0.724149 0.506558
0.164776 0.750879 0.507484
0.256854 0.778762 0.516228
0.356278 0.803250 0.520525
0.463483 0.823844 0.519828
0.578973 0.840066 0.513612
0.703330 0.851462 0.501377
0.837216 0.857608 0.482647
0.981369 0.858103 0.456979
1.000000 0.852575 0.423951
0.118884 0.944920 0.518231
0.213600 0.966550 0.509880
0.316189 0.983561 0.495334
0.427296 0.995549 0.474128
0.547646 1.000000 0.445828
0.678041 1.000000 0.410021
0.819354 0.997746 0.366320
0.972530 0.986122 0.314353
1.000000 0.967810 0.253759
0.000000 1.000000 0.464668
0.094568 1.000000 0.433681
0.199233 1.000000 0.395045
0.313739 1.000000 0.348377
0.439008 1.000000 0.293311
0.576021 1.000000 0.229486
0.725809 1.000000 0.156541
0.889430 1.000000 0.074091
1.000000 1.000000 0.000000
0.000000 0.023531 0.165947
0.009261 0.025343 0.175430
0.042436 0.028992 0.187110
0.082107 0.034321 0.200875
0.128471 0.041231 0.216666
0.181784 0.049627 0.234431
0.242341 0.059404 0.254107
0.310461 0.070428 0.275603
0.386480 0.082533 0.298795
0.000000 0.066244 0.206392
0.039030 0.076234 0.222908
0.086069 0.087785 0.241377
0.140051 0.100794 0.261728
0.201259 0.115131 0.283858
0.269992 0.130627 0.307628
0.346556 0.147073 0.332858
0.431263 0.164212 0.359321
0.524428 0.181738 0.386740
0.031792 0.144420 0.269585
0.085779 0.162150 0.292330
0.146886 0.181123 0.316656
0.215378 0.201123 0.342363
0.291524 0.221890 0.369209
0.375598 0.243113 0.396898
0.467872 0.264431 0.425088
0.568625 0.285439 0.453388
0.678140 0.305684 0.481363
0.076989 0.257721 0.352020
0.144157 0.282209 0.379209
0.218690 0.307225 0.407123
0.300820 0.332404 0.435401
0.390783 0.357334 0.463635
0.488824 0.381561 0.491374
0.595202 0.404594 0.518133
0.710196 0.425912 0.543391
0.834115 0.444969 0.566609
0.124928 0.403280 0.445707
0.203574 0.432239 0.473816
0.289584 0.460559 0.501257
0.383180 0.487751 0.527530
0.484609 0.513297 0.552109
0.594148 0.536658 0.574447
0.712114 0.557286 0.593986
0.838875 0.574629 0.610165
0.974855 0.588144 0.622432
0.160310 0.574223 0.536703
0.247545 0.604123 0.560530
0.342049 0.631923 0.581914
0.444114 0.657084 0.600294
0.554084 0.679070 0.615113
0.672361 0.697352 0.625820
0.799418 0.711419 0.631881
0.935796 0.720778 0.632781
1.000000 0.724962 0.628034
0.162911 0.760697 0.606131
0.255372 0.787484 0.619516
0.355208 0.810705 0.628592
0.462872 0.829867 0.632832
0.578892 0.844499 0.631732
0.703871 0.854159 0.624811
0.838492 0.858428 0.611620
0.983516 0.856919 0.591734
1.000000 0.849266 0.564755
0.110465 0.952758 0.633075
0.205330 0.972866 0.629910
0.308152 0.988215 0.620758
0.419601 0.998411 0.605177
0.540423 1.000000 0.582754
0.671439 1.000000 0.553097
0.813544 0.994530 0.515839
0.967699 0.980668 0.470624
1.000000 0.960016 0.417106
0.000000 1.000000 0.597827
0.077656 1.000000 0.572814
0.182527 1.000000 0.540432
0.297401 1.000000 0.500317
0.423217 1.000000 0.452119
0.560969 1.000000 0.395492
0.711696 1.000000 0.330079
0.876456 1.000000 0.255498
1.000000 1.000000 0.171286
0.000000 0.023925 0.191389
0.011402 0.026386 0.203910
0.045970 0.030619 0.218651
0.087064 0.036495 0.235538
0.134899 0.043920 0.254531
0.189742 0.052798 0.275589
0.251894 0.063015 0.298653
0.321675 0.074427 0.323635
0.399423 0.086855 0.350410
0.001309 0.069456 0.242210
0.043037 0.079986 0.261961
0.091494 0.092045 0.283757
0.146944 0.105521 0.307531
0.209673 0.120273 0.333183
0.279978 0.136118 0.360571
0.358163 0.152830 0.389514
0.444537 0.170137 0.419779
0.539411 0.187716 0.451088
0.035917 0.150290 0.316659
0.091274 0.168464 0.342962
0.153786 0.187812 0.370939
0.223716 0.208104 0.400393
0.301331 0.229063 0.431073
0.386899 0.250361 0.462683
0.480691 0.271622 0.494874
0.582981 0.292424 0.527255
0.694052 0.312299 0.559387
0.081912 0.265957 0.411435
0.150338 0.290663 0.442491
0.226140 0.315777 0.474355
0.309545 0.340920 0.506663
0.400789 0.365664 0.539006
0.500116 0.389543 0.570932
0.607786 0.412053 0.601956
0.724083 0.432665 0.631564
0.849323 0.450827 0.659221
0.129374 0.413157 0.518457
0.209034 0.441952 0.550702
0.296048 0.469946 0.582358
0.390642 0.496638 0.612927
0.493067 0.521502 0.641887
0.603608 0.543997 0.668699
0.722596 0.563571 0.692818
0.850411 0.579675 0.713696
0.987494 0.591768 0.730797
0.162427 0.584580 0.623684
0.250341 0.613827 0.651926
0.345520 0.640790 0.677821
0.448269 0.664933 0.700823
0.558947 0.685720 0.720387
0.677974 0.702627 0.735982
0.805841 0.715149 0.747091
0.943111 0.722802 0.753223
1.000000 0.725128 0.753911
0.160485 0.770163 0.708371
0.253299 0.795795 0.726552
0.353522 0.817691 0.740572
0.461627 0.835367 0.749925
0.578163 0.848359 0.754128
0.703756 0.856233 0.752723
0.839112 0.858582 0.745282
0.985014 0.855026 0.731401
1.000000 0.845209 0.710705
0.101268 0.960095 0.752076
0.196265 0.978632 0.754288
0.299312 0.992274 0.750734
0.411099 1.000000 0.740994
0.532394 1.000000 0.724675
0.664040 1.000000 0.701407
0.806950 0.990565 0.670840
0.962101 0.974431 0.632636
1.000000 0.951404 0.586460
0.000000 1.000000 0.735834
0.059782 1.000000 0.717027
0.164864 1.000000 0.691142
0.280115 1.000000 0.657833
0.406490 1.000000 0.616765
0.544995 1.000000 0.567604
0.696675 1.000000 0.510000
0.862584 1.000000 0.443562
1.000000 1.000000 0.367795
0.000000 0.024551 0.218629
0.013747 0.027633 0.234212
0.049706 0.032435 0.252058
0.092226 0.038848 0.272124
0.141540 0.046778 0.294385
0.197921 0.056124 0.318808
0.261675 0.066765 0.345338
0.333124 0.078544 0.373888
0.412604 0.091268 0.404332
0.004115 0.072855 0.279976
0.047216 0.083915 0.303029
0.097093 0.096469 0.328227
0.154013 0.110396 0.355504
0.218263 0.125542 0.384761
0.290139 0.141709 0.415855
0.369941 0.158656 0.448600
0.457976 0.176094 0.482762
0.554549 0.193684 0.518057
0.040163 0.156318 0.365933
0.096883 0.174914 0.395877
0.160793 0.194610 0.427596
0.232152 0.215163 0.460887
0.311222 0.236276 0.495497
0.398269 0.257606 0.531124
0.493560 0.278761 0.567418
0.597368 0.299302 0.603984
0.709975 0.318750 0.640383
0.086854 0.274280 0.473349
0.156521 0.299164 0.508367
0.233570 0.324333 0.544280
0.318227 0.349391 0.580721
0.410726 0.373895 0.617279
0.511312 0.397367 0.653502
0.620247 0.419293 0.688908
0.737821 0.439135 0.722987
0.864358 0.456339 0.755214
0.133679 0.422996 0.594040
0.214321 0.451573 0.630530
0.302307 0.479182 0.666513
0.397866 0.505314 0.701496
0.501256 0.529435 0.734962
0.612772 0.551000 0.766382
0.732756 0.569457 0.795222
0.861603 0.584259 0.820951
0.999772 0.594868 0.843047
0.164188 0.594735 0.713883
0.252746 0.623267 0.746666
0.348568 0.649333 0.777209
0.451972 0.672395 0.804977
0.563332 0.691922 0.829442
0.683089 0.707396 0.850091
0.811751 0.718317 0.866427
0.949905 0.724211 0.877979
1.000000 0.724629 0.884303
0.157473 0.779255 0.814294
0.250612 0.803675 0.837428
0.351199 0.824191 0.856563
0.459728 0.840326 0.871210
0.576769 0.851628 0.880909
0.702972 0.857670 0.885225
0.839063 0.858055 0.883751
0.985848 0.852411 0.876105
1.000000 0.840390 0.861931
0.091272 0.966914 0.875338
0.186388 0.983834 0.883126
0.289652 0.995724 0.885379
0.401775 1.000000 0.881701
0.523547 1.000000 0.871719
0.655832 0.997587 0.855083
0.799559 0.985840 0.831461
0.955723 0.967399 0.800531
1.000000 0.941963 0.761969
0.000000 1.000000 0.878815
0.040930 1.000000 0.866450
0.146228 1.000000 0.847309
0.261866 1.000000 0.821064
0.388813 1.000000 0.787392
0.528086 1.000000 0.745970
0.680732 1.000000 0.696451
0.847793 1.000000 0.638433
1.000000 1.000000 0.571356
0.000000 0.025395 0.247679
0.016291 0.029077 0.266358
0.053641 0.034437 0.287361
0.097593 0.041375 0.310668
0.148392 0.049799 0.336266
0.206319 0.059600 0.364130
0.271682 0.070646 0.394207
0.344803 0.082770 0.426410
0.426018 0.095764 0.460612
0.007086 0.076437 0.319723
0.051563 0.088016 0.346151
0.102862 0.101052 0.374828
0.161254 0.115412 0.405691
0.227024 0.130929 0.438639
0.300467 0.147390 0.473528
0.381881 0.164539 0.510169
0.471567 0.182069 0.548323
0.569829 0.199624 0.587703
0.044522 0.162497 0.417451
0.102599 0.181491 0.451125
0.167898 0.201508 0.486676
0.240673 0.222286 0.523899
0.321185 0.243514 0.562535
0.409695 0.264831 0.602280
0.506465 0.285829 0.642780
0.611769 0.306054 0.683638
0.725889 0.325016 0.724417
0.091803 0.282676 0.537816
0.162689 0.307699 0.576894
0.240963 0.332877 0.616957
0.326848 0.357798 0.657636
0.420575 0.382007 0.698518
0.522392 0.405013 0.739152
0.632565 0.426293 0.779060
0.751390 0.445302 0.817737
0.879199 0.461481 0.854668
0.137821 0.432779 0.672519
0.219413 0.461083 0.713365
0.308339 0.488249 0.753791
0.404832 0.513758 0.793310
0.509156 0.537073 0.831412
0.621618 0.557644 0.867578
0.742572 0.574921 0.901286
0.872431 0.588358 0.932020
1.000000 0.597425 0.959280
0.165571 0.604668 0.807373
0.254738 0.632422 0.844830
0.351171 0.657528 0.880161
0.455201 0.679449 0.912846
0.567220 0.697657 0.942373
0.687687 0.711640 0.968246
0.817132 0.720906 0.989991
0.956163 0.724989 1.000000
1.000000 0.723450 1.000000
0.153853 0.787955 0.923988
0.247290 0.811104 0.952241
0.348219 0.830185 0.976665
0.457156 0.844728 0.996794
0.574693 0.854290 1.000000
0.701501 0.858454 1.000000
0.838331 0.856833 1.000000
0.986008 0.849061 1.000000
1.000000 0.834799 1.000000
0.080457 0.973200 1.000000
0.175681 0.988455 1.000000
0.279154 0.998551 1.000000
0.391613 1.000000 1.000000
0.513868 1.000000 1.000000
0.646801 0.994330 1.000000
0.791360 0.980343 0.997842
0.948554 0.959560 0.974452
1.000000 0.931679 0.943778
0.000000 1.000000 1.000000
0.021085 1.000000 1.000000
0.126607 1.000000 1.000000
0.242642 1.000000 0.990150
0.370175 1.000000 0.964145
0.510229 1.000000 0.930739
0.663851 1.000000 0.889584
0.832062 1.000000 0.840257
1.000000 1.000000 0.782083
0.000000 0.026450 0.278555
0.019030 0.030714 0.300372
0.057773 0.036621 0.324589
0.103163 0.044074 0.351204
0.155453 0.052979 0.380214
0.214933 0.063219 0.411597
0.281909 0.074652 0.445305
0.356707 0.087097 0.481249
0.439658 0.100331 0.519300
0.010219 0.080199 0.361489
0.056073 0.092286 0.391366
0.108795 0.105788 0.423604
0.168659 0.120562 0.458138
0.235948 0.136425 0.494866
0.310954 0.153151 0.533643
0.393973 0.170466 0.574275
0.485301 0.188047 0.616520
0.585239 0.205522 0.660087
0.048985 0.168818 0.471262
0.108413 0.188186 0.508755
0.175090 0.208494 0.548233
0.249269 0.229462 0.589483
0.331207 0.250763 0.632245
0.421160 0.272019 0.676211
0.519390 0.292808 0.721024
0.626168 0.312661 0.766285
0.741778 0.331075 0.811558
0.096745 0.291133 0.604891
0.168829 0.316252 0.648130
0.248303 0.341391 0.692448
0.335388 0.366123 0.737472
0.430318 0.389981 0.782790
0.533338 0.412460 0.827953
0.644721 0.433031 0.872486
0.764770 0.451142 0.915892
0.893828 0.466233 0.957665
0.141780 0.442487 0.753960
0.224290 0.470462 0.799275
0.314123 0.497124 0.844265
0.411517 0.521949 0.888445
0.516745 0.544394 0.931316
0.630126 0.563908 0.972369
0.752027 0.579942 1.000000
0.882877 0.591954 1.000000
1.000000 0.599419 1.000000
0.166553 0.614357 0.904231
0.256295 0.641272 0.946499
0.353307 0.665357 0.986764
0.457935 0.686075 1.000000
0.570590 0.702905 1.000000
0.691750 0.715339 1.000000
0.821967 0.722896 1.000000
0.961869 0.725118 1.000000
1.000000 0.721575 1.000000
0.149603 0.796243 1.000000
0.243312 0.818064 1.000000
0.344563 0.835656 1.000000
0.453893 0.848556 1.000000
0.571918 0.856330 1.000000
0.699330 0.858571 1.000000
0.836901 0.854900 1.000000
0.985480 0.844962 1.000000
1.000000 0.828421 1.000000
0.068805 0.978936 1.000000
0.164124 0.992481 1.000000
0.267803 1.000000 1.000000
0.380599 1.000000 1.000000
0.503342 0.999986 1.000000
0.636934 0.990323 1.000000
0.782341 0.974062 1.000000
0.940582 0.950903 1.000000
1.000000 0.920539 1.000000
0.000000 1.000000 1.000000
0.000234 1.000000 1.000000
0.105986 1.000000 1.000000
0.222429 1.000000 1.000000
0.350560 1.000000 1.000000
0.491407 1.000000 1.000000
0.646014 1.000000 1.000000
0.815361 1.000000 1.000000
1.000000 1.000000 1.000000
