style/luts/crowley-noir.cube
LUT_3D_SIZE 5
0.000000 0.024884 0.082384
0.030390 0.024471 0.079130
0.104922 0.032225 0.084425
0.206461 0.046453 0.096505
0.337187 0.066343 0.114483
0.016624 0.122621 0.102419
0.120542 0.155643 0.122277
0.253379 0.193852 0.146269
0.417399 0.235475 0.172344
0.614918 0.277973 0.197687
0.106087 0.363731 0.181828
0.262080 0.421908 0.206053
0.448518 0.478167 0.224492
0.667366 0.528570 0.232727
0.921049 0.568825 0.225983
0.167228 0.719514 0.232263
0.356002 0.778267 0.218853
0.575508 0.823495 0.183860
0.829606 0.851295 0.122691
1.000000 0.858148 0.031141
0.044211 1.000000 0.093086
0.243750 1.000000 0.000000
0.480891 1.000000 0.000000
0.762837 1.000000 0.000000
1.000000 1.000000 0.000000
0.000000 0.023512 0.120452
0.035987 0.026323 0.129526
0.116262 0.036370 0.146766
0.223931 0.052619 0.171269
0.361330 0.074202 0.202300
0.023929 0.133173 0.181859
0.133447 0.168111 0.215009
0.272214 0.207715 0.252940
0.442448 0.249960 0.293551
0.646411 0.292039 0.333966
0.115682 0.383481 0.308462
0.276121 0.441416 0.347945
0.466974 0.496151 0.382146
0.690263 0.543599 0.406704
0.948564 0.579408 0.416986
0.166101 0.740729 0.412346
0.356753 0.795346 0.416274
0.578424 0.835076 0.399663
0.835300 0.856135 0.358244
1.000000 0.855150 0.288164
0.014916 1.000000 0.336238
0.214996 1.000000 0.254849
0.453875 1.000000 0.140198
0.739028 1.000000 0.000000
1.000000 1.000000 0.000000
0.000000 0.023531 0.165947
0.042436 0.028992 0.187110
0.128471 0.041231 0.216666
0.242341 0.059404 0.254107
0.386480 0.082533 0.298795
0.031792 0.144420 0.269585
0.146886 0.181123 0.316656
0.291524 0.221890 0.369209
0.467872 0.264431 0.425088
0.678140 0.305684 0.481363
0.124928 0.403280 0.445707
0.289584 0.460559 0.501257
0.484609 0.513297 0.552109
0.712114 0.557286 0.593986
0.974855 0.588144 0.622432
0.162911 0.760697 0.606131
0.355208 0.810705 0.628592
0.578892 0.844499 0.631732
0.838492 0.858428 0.611620
1.000000 0.849266 0.564755
0.000000 1.000000 0.597827
0.182527 1.000000 0.540432
0.423217 1.000000 0.452119
0.711696 1.000000 0.330079
1.000000 1.000000 0.171286
0.000000 0.024551 0.218629
0.049706 0.032435 0.252058
0.141540 0.046778 0.294385
0.261675 0.066765 0.345338
0.412604 0.091268 0.404332
0.040163 0.156318 0.365933
0.160793 0.194610 0.427596
0.311222 0.236276 0.495497
0.493560 0.278761 0.567418
0.709975 0.318750 0.640383
0.133679 0.422996 0.594040
0.302307 0.479182 0.666513
0.501256 0.529435 0.734962
0.732756 0.569457 0.795222
0.999772 0.594868 0.843047
0.157473 0.779255 0.814294
0.351199 0.824191 0.856563
0.576769 0.851628 0.880909
0.839063 0.858055 0.883751
1.000000 0.840390 0.861931
0.000000 1.000000 0.878815
0.146228 1.000000 0.847309
0.388813 1.000000 0.787392
0.680732 1.000000 0.696451
1.000000 1.000000 0.571356
0.000000 0.026450 0.278555
0.057773 0.036621 0.324589
0.155453 0.052979 0.380214
0.281909 0.074652 0.445305
0.439658 0.100331 0.519300
0.048985 0.168818 0.471262
0.175090 0.208494 0.548233
0.331207 0.250763 0.632245
0.519390 0.292808 0.721024
0.741778 0.331075 0.811558
0.141780 0.442487 0.753960
0.314123 0.497124 0.844265
0.516745 0.544394 0.931316
0.752027 0.579942 1.000000
1.000000 0.599419 1.000000
0.149603 0.796243 1.000000
0.344563 0.835656 1.000000
0.571918 0.856330 1.000000
0.836901 0.854900 1.000000
1.000000 0.828421 1.000000
0.000000 1.000000 1.000000
0.105986 1.000000 1.000000
0.350560 1.000000 1.000000
0.646014 1.000000 1.000000
1.000000 1.000000 1.000000
