style/luts/crowley-noir.cube
LUT_3D_SIZE 33
0.000000 0.024884 0.082384
0.000000 0.024151 0.081273
0.000000 0.023706 0.080456
0.000000 0.023461 0.079846
0.002902 0.023383 0.079411
0.009157 0.023456 0.079131
0.015826 0.023666 0.078997
0.022905 0.024006 0.078998
0.030390 0.024471 0.079130
0.038280 0.025054 0.079386
0.046574 0.025753 0.079764
0.055274 0.026564 0.080260
0.064381 0.027485 0.080871
0.073897 0.028513 0.081595
0.083824 0.029647 0.082430
0.094164 0.030885 0.083374
0.104922 0.032225 0.084425
0.116100 0.033666 0.085582
0.127703 0.035206 0.086843
0.139734 0.036844 0.088206
0.152197 0.038578 0.089671
0.165096 0.040408 0.091234
0.178437 0.042331 0.092896
0.192224 0.044347 0.094653
0.206461 0.046453 0.096505
0.221154 0.048648 0.098449
0.236307 0.050930 0.100485
0.251925 0.053298 0.102609
0.268015 0.055748 0.104820
0.284580 0.058281 0.107115
0.301627 0.060892 0.109492
0.319161 0.063580 0.111949
0.337187 0.066343 0.114483
0.000000 0.028560 0.079669
0.000000 0.028676 0.079292
0.000000 0.028938 0.079066
0.000000 0.029336 0.078982
0.006407 0.029862 0.079031
0.013565 0.030511 0.079209
0.021124 0.031279 0.079510
0.029085 0.032162 0.079931
0.037448 0.033157 0.080469
0.046214 0.034263 0.081122
0.055386 0.035476 0.081887
0.064966 0.036796 0.082761
0.074956 0.038220 0.083745
0.085361 0.039748 0.084834
0.096182 0.041377 0.086029
0.107425 0.043106 0.087328
0.119092 0.044934 0.088728
0.131187 0.046860 0.090228
0.143716 0.048882 0.091828
0.156682 0.050998 0.093524
0.170089 0.053208 0.095316
0.183943 0.055510 0.097202
0.198248 0.057902 0.099180
0.213009 0.060382 0.101248
0.228232 0.062948 0.103404
0.243920 0.065600 0.105645
0.260080 0.068333 0.107971
0.276716 0.071148 0.110377
0.293834 0.074040 0.112863
0.311439 0.077008 0.115424
0.329537 0.080048 0.118059
0.348132 0.083159 0.120764
0.367231 0.086338 0.123537
0.000000 0.035124 0.078985
0.000000 0.035836 0.079082
0.000000 0.036670 0.079305
0.003672 0.037622 0.079650
0.011296 0.038690 0.080114
0.019320 0.039871 0.080694
0.027743 0.041161 0.081387
0.036569 0.042561 0.082192
0.045799 0.044067 0.083107
0.055437 0.045679 0.084129
0.065485 0.047394 0.085257
0.075946 0.049212 0.086490
0.086825 0.051131 0.087826
0.098125 0.053151 0.089263
0.109850 0.055268 0.090799
0.122004 0.057483 0.092434
0.134591 0.059794 0.094166
0.147616 0.062200 0.095992
0.161083 0.064698 0.097912
0.174997 0.067288 0.099923
0.189363 0.069967 0.102023
0.204185 0.072734 0.104210
0.219468 0.075587 0.106482
0.235218 0.078523 0.108838
0.251439 0.081541 0.111273
0.268137 0.084639 0.113787
0.285316 0.087813 0.116375
0.302983 0.091062 0.119036
0.321142 0.094382 0.121766
0.339798 0.097770 0.124562
0.358958 0.101224 0.127421
0.378626 0.104740 0.130339
0.398808 0.108315 0.133313
0.000000 0.044085 0.079805
0.000000 0.045338 0.080312
0.000889 0.046704 0.080933
0.008967 0.048181 0.081668
0.017443 0.049767 0.082513
0.026321 0.051460 0.083467
0.035603 0.053260 0.084528
0.045292 0.055165 0.085694
0.055391 0.057172 0.086964
0.065903 0.059283 0.088337
0.076833 0.061494 0.089811
0.088184 0.063805 0.091383
0.099960 0.066214 0.093054
0.112165 0.068720 0.094820
0.124803 0.071322 0.096680
0.137880 0.074018 0.098633
0.151398 0.076807 0.100677
0.165364 0.079686 0.102809
0.179782 0.082655 0.105028
0.194656 0.085710 0.107330
0.209991 0.088851 0.109715
0.225793 0.092074 0.112179
0.242066 0.095378 0.114721
0.258815 0.098760 0.117336
0.276046 0.102218 0.120022
0.293763 0.105748 0.122777
0.311972 0.109348 0.125596
0.330679 0.113014 0.128477
0.349887 0.116744 0.131415
0.369602 0.120534 0.134408
0.389831 0.124380 0.137451
0.410577 0.128279 0.140541
0.431847 0.132226 0.143672
0.000000 0.055322 0.081963
0.000000 0.057095 0.082847
0.006531 0.058977 0.083841
0.015454 0.060965 0.084940
0.024781 0.063059 0.086145
0.034514 0.065258 0.087452
0.044657 0.067560 0.088862
0.055213 0.069964 0.090372
0.066186 0.072469 0.091980
0.077580 0.075074 0.093686
0.089399 0.077777 0.095486
0.101648 0.080576 0.097381
0.114330 0.083471 0.099367
0.127450 0.086460 0.101443
0.141012 0.089540 0.103607
0.155020 0.092711 0.105856
0.169481 0.095971 0.108189
0.184398 0.099317 0.110603
0.199775 0.102746 0.113096
0.215619 0.106258 0.115664
0.231933 0.109849 0.118306
0.248724 0.113517 0.121017
0.265994 0.117259 0.123796
0.283751 0.121071 0.126638
0.301998 0.124952 0.129540
0.320741 0.128897 0.132499
0.339985 0.132903 0.135511
0.359736 0.136967 0.138571
0.379997 0.141085 0.141676
0.400775 0.145252 0.144821
0.422074 0.149464 0.148002
0.443900 0.153717 0.151214
0.466257 0.158007 0.154452
0.000000 0.068795 0.085367
0.003950 0.071079 0.086609
0.013314 0.073470 0.087954
0.023083 0.075965 0.089400
0.033262 0.078563 0.090946
0.043855 0.081263 0.092590
0.054864 0.084064 0.094330
0.066294 0.086964 0.096165
0.078148 0.089962 0.098093
0.090432 0.093057 0.100112
0.103148 0.096247 0.102221
0.116302 0.099530 0.104416
0.129898 0.102905 0.106696
0.143941 0.106370 0.109059
0.158435 0.109922 0.111502
0.173384 0.113559 0.114022
0.188793 0.117280 0.116618
0.204668 0.121081 0.119285
0.221012 0.124961 0.122021
0.237832 0.128915 0.124823
0.255131 0.132942 0.127688
0.272914 0.137038 0.130611
0.291187 0.141200 0.133589
0.309953 0.145424 0.136619
0.329220 0.149706 0.139697
0.348990 0.154044 0.142817
0.369270 0.158432 0.145976
0.390064 0.162867 0.149168
0.411377 0.167344 0.152390
0.433215 0.171859 0.155637
0.455581 0.176406 0.158902
0.478482 0.180981 0.162180
0.501923 0.185578 0.165467
0.001181 0.084497 0.089951
0.010980 0.087290 0.091533
0.021188 0.090186 0.093212
0.031808 0.093184 0.094987
0.042845 0.096283 0.096857
0.054302 0.099481 0.098818
0.066183 0.102777 0.100870
0.078492 0.106169 0.103010
0.091234 0.109656 0.105236
0.104413 0.113236 0.107547
0.118034 0.116907 0.109939
0.132099 0.120667 0.112411
0.146615 0.124513 0.114959
0.161586 0.128444 0.117580
0.177016 0.132457 0.120273
0.192910 0.136549 0.123034
0.209273 0.140718 0.125859
0.226109 0.144960 0.128745
0.243422 0.149273 0.131689
0.261219 0.153652 0.134687
0.279504 0.158095 0.137734
0.298280 0.162599 0.140828
0.317554 0.167158 0.143963
0.337330 0.171769 0.147134
0.357613 0.176427 0.150338
0.378407 0.181129 0.153570
0.399718 0.185870 0.156823
0.421550 0.190645 0.160094
0.443909 0.195448 0.163376
0.466798 0.200275 0.166665
0.490224 0.205120 0.169953
0.514190 0.209978 0.173236
0.538702 0.214842 0.176506
0.008412 0.102435 0.095657
0.019051 0.105734 0.097560
0.030106 0.109133 0.099555
0.041581 0.112631 0.101639
0.053479 0.116227 0.103811
0.065805 0.119919 0.106068
0.078562 0.123705 0.108409
0.091756 0.127584 0.110830
0.105389 0.131552 0.113329
0.119468 0.135609 0.115905
0.133995 0.139752 0.118553
0.148975 0.143977 0.121271
0.164413 0.148284 0.124055
0.180314 0.152668 0.126903
0.196682 0.157127 0.129811
0.213521 0.161657 0.132774
0.230836 0.166256 0.135791
0.248632 0.170920 0.138856
0.266914 0.175645 0.141964
0.285685 0.180427 0.145113
0.304951 0.185262 0.148297
0.324716 0.190146 0.151512
0.344985 0.195074 0.154752
0.365763 0.200043 0.158012
0.387055 0.205046 0.161288
0.408864 0.210079 0.164573
0.431196 0.215137 0.167862
0.454056 0.220214 0.171149
0.477447 0.225304 0.174428
0.501376 0.230403 0.177692
0.525846 0.235503 0.180935
0.550863 0.240599 0.184151
0.576431 0.245684 0.187332
0.016624 0.122621 0.102419
0.028107 0.126422 0.104623
0.040012 0.130320 0.106911
0.052343 0.134313 0.109281
0.065105 0.138401 0.111731
0.078302 0.142579 0.114258
0.091938 0.146848 0.116861
0.106016 0.151203 0.119534
0.120542 0.155643 0.122277
0.135520 0.160165 0.125085
0.150953 0.164766 0.127955
0.166847 0.169443 0.130883
0.183206 0.174193 0.133867
0.200035 0.179012 0.136901
0.217336 0.183898 0.139982
0.235117 0.188846 0.143106
0.253379 0.193852 0.146269
0.272129 0.198913 0.149464
0.291371 0.204024 0.152689
0.311109 0.209180 0.155937
0.331347 0.214377 0.159203
0.352091 0.219611 0.162483
0.373345 0.224875 0.165770
0.395113 0.230165 0.169059
0.417399 0.235475 0.172344
0.440209 0.240800 0.175618
0.463547 0.246134 0.178876
0.487417 0.251471 0.182110
0.511825 0.256804 0.185314
0.536774 0.262127 0.188480
0.562270 0.267435 0.191603
0.588316 0.272719 0.194674
0.614918 0.277973 0.197687
0.025754 0.145061 0.110164
0.038080 0.149358 0.112642
0.050835 0.153748 0.115197
0.064023 0.158230 0.117826
0.077648 0.162799 0.120525
0.091714 0.167454 0.123292
0.106226 0.172193 0.126123
0.121187 0.177012 0.129014
0.136602 0.181909 0.131963
0.152475 0.186879 0.134966
0.168811 0.191921 0.138018
0.185613 0.197030 0.141115
0.202886 0.202202 0.144253
0.220634 0.207435 0.147428
0.238862 0.212722 0.150635
0.257574 0.218061 0.153869
0.276774 0.223447 0.157124
0.296467 0.228875 0.160396
0.316656 0.234340 0.163679
0.337347 0.239837 0.166968
0.358544 0.245360 0.170256
0.380250 0.250906 0.173538
0.402472 0.256467 0.176806
0.425212 0.262037 0.180056
0.448475 0.267612 0.183280
0.472266 0.273184 0.186471
0.496589 0.278748 0.189623
0.521448 0.284296 0.192727
0.546849 0.289822 0.195778
0.572795 0.295319 0.198767
0.599292 0.300779 0.201687
0.626343 0.306197 0.204529
0.653953 0.311563 0.207287
0.035720 0.169756 0.118800
0.048887 0.174541 0.121525
0.062488 0.179413 0.124315
0.076529 0.184370 0.127168
0.091012 0.189408 0.130081
0.105943 0.194526 0.133050
0.121325 0.199719 0.136071
0.137162 0.204984 0.139140
0.153458 0.210317 0.142253
0.170218 0.215716 0.145405
0.187446 0.221175 0.148592
0.205145 0.226691 0.151809
0.223321 0.232260 0.155052
0.241977 0.237876 0.158314
0.261117 0.243536 0.161591
0.280746 0.249234 0.164876
0.300867 0.254965 0.168165
0.321486 0.260724 0.171452
0.342605 0.266506 0.174730
0.364231 0.272304 0.177992
0.386365 0.278114 0.181233
0.409014 0.283928 0.184446
0.432181 0.289741 0.187623
0.455870 0.295545 0.190759
0.480086 0.301336 0.193845
0.504833 0.307105 0.196874
0.530115 0.312847 0.199839
0.555937 0.318553 0.202731
0.582304 0.324216 0.205543
0.609219 0.329830 0.208268
0.636688 0.335387 0.210896
0.664714 0.340878 0.213419
0.693303 0.346296 0.215829
0.046426 0.196695 0.128222
0.060426 0.201955 0.131156
0.074867 0.207294 0.134144
0.089751 0.212711 0.137183
0.105084 0.218201 0.140269
0.120869 0.223761 0.143396
0.137110 0.229386 0.146562
0.153811 0.235074 0.149760
0.170976 0.240820 0.152987
0.188609 0.246620 0.156237
0.206714 0.252469 0.159505
0.225295 0.258362 0.162786
0.244356 0.264295 0.166074
0.263901 0.270262 0.169363
0.283935 0.276258 0.172646
0.304460 0.282277 0.175919
0.325482 0.288315 0.179175
0.347004 0.294364 0.182406
0.369031 0.300419 0.185607
0.391566 0.306474 0.188770
0.414613 0.312522 0.191888
0.438178 0.318557 0.194955
0.462263 0.324571 0.197961
0.486873 0.330558 0.200900
0.512013 0.336511 0.203765
0.537687 0.342423 0.206546
0.563898 0.348286 0.209236
0.590652 0.354092 0.211827
0.617953 0.359834 0.214310
0.645805 0.365504 0.216677
0.674213 0.371094 0.218919
0.703182 0.376596 0.221027
0.732716 0.382002 0.222993
0.057752 0.225857 0.138301
0.072575 0.231573 0.141403
0.087842 0.237361 0.144545
0.103558 0.243215 0.147723
0.119726 0.249134 0.150932
0.136350 0.255111 0.154168
0.153433 0.261143 0.157425
0.170981 0.267226 0.160699
0.188996 0.273354 0.163982
0.207483 0.279523 0.167271
0.226445 0.285727 0.170559
0.245886 0.291961 0.173840
0.265811 0.298220 0.177107
0.286222 0.304498 0.180355
0.307124 0.310789 0.183576
0.328521 0.317087 0.186763
0.350416 0.323386 0.189911
0.372815 0.329678 0.193011
0.395720 0.335959 0.196056
0.419135 0.342220 0.199039
0.443066 0.348455 0.201952
0.467515 0.354656 0.204787
0.492487 0.360818 0.207536
0.517986 0.366931 0.210191
0.544017 0.372989 0.212744
0.570583 0.378983 0.215186
0.597690 0.384907 0.217508
0.625340 0.390751 0.219702
0.653540 0.396508 0.221759
0.682294 0.402171 0.223671
0.711606 0.407729 0.225428
0.741481 0.413176 0.227020
0.771925 0.418502 0.228440
0.069558 0.257204 0.148888
0.085187 0.263353 0.152107
0.101263 0.269564 0.155352
0.117792 0.275830 0.158615
0.134775 0.282148 0.161893
0.152218 0.288513 0.165180
0.170123 0.294919 0.168469
0.188495 0.301362 0.171754
0.207337 0.307836 0.175031
0.226653 0.314336 0.178292
0.246446 0.320856 0.181531
0.266720 0.327390 0.184740
0.287480 0.333932 0.187914
0.308728 0.340476 0.191046
0.330469 0.347015 0.194127
0.352707 0.353543 0.197150
0.375445 0.360052 0.200108
0.398687 0.366537 0.202994
0.422437 0.372989 0.205798
0.446699 0.379401 0.208514
0.471478 0.385767 0.211133
0.496777 0.392078 0.213646
0.522600 0.398327 0.216045
0.548952 0.404505 0.218322
0.575837 0.410606 0.220467
0.603259 0.416621 0.222473
0.631223 0.422541 0.224329
0.659733 0.428359 0.226027
0.688795 0.434066 0.227558
0.718413 0.439654 0.228912
0.748592 0.445114 0.230081
0.779336 0.450438 0.231054
0.810653 0.455616 0.231823
0.081679 0.290681 0.159807
0.098092 0.297236 0.163089
0.114955 0.303839 0.166377
0.132273 0.310484 0.169666
0.150047 0.317168 0.172949
0.168282 0.323883 0.176220
0.186982 0.330626 0.179474
0.206150 0.337390 0.182703
0.225789 0.344169 0.185900
0.245904 0.350957 0.189060
0.266497 0.357747 0.192173
0.287573 0.364534 0.195234
0.309135 0.371311 0.198235
0.331187 0.378070 0.201168
0.353733 0.384806 0.204025
0.376776 0.391510 0.206798
0.400320 0.398175 0.209479
0.424369 0.404795 0.212060
0.448927 0.411361 0.214533
0.473998 0.417865 0.216889
0.499586 0.424301 0.219119
0.525696 0.430660 0.221214
0.552331 0.436934 0.223166
0.579496 0.443114 0.224966
0.607196 0.449193 0.226604
0.635435 0.455162 0.228072
0.664217 0.461014 0.229359
0.693548 0.466738 0.230458
0.723433 0.472327 0.231358
0.753876 0.477773 0.232050
0.784883 0.483066 0.232524
0.816459 0.488198 0.232772
0.848611 0.493161 0.232782
0.093927 0.326220 0.170862
0.111097 0.333145 0.174142
0.128718 0.340104 0.177407
0.146795 0.347090 0.180653
0.165330 0.354099 0.183871
0.184327 0.361125 0.187055
0.203788 0.368160 0.190199
0.223719 0.375199 0.193294
0.244122 0.382236 0.196334
0.265000 0.389263 0.199311
0.286358 0.396274 0.202217
0.308199 0.403262 0.205044
0.330526 0.410220 0.207785
0.353343 0.417140 0.210431
0.376654 0.424016 0.212974
0.400462 0.430838 0.215405
0.424773 0.437601 0.217716
0.449588 0.444295 0.219898
0.474914 0.450914 0.221942
0.500753 0.457449 0.223840
0.527110 0.463891 0.225582
0.553989 0.470233 0.227159
0.581395 0.476467 0.228562
0.609332 0.482583 0.229782
0.637806 0.488574 0.230809
0.666820 0.494431 0.231634
0.696380 0.500145 0.232248
0.726491 0.505709 0.232641
0.757159 0.511112 0.232803
0.788389 0.516347 0.232726
0.820186 0.521405 0.232399
0.852557 0.526277 0.231812
0.885507 0.530955 0.230957
0.106087 0.363731 0.181828
0.123981 0.370987 0.185035
0.142328 0.378260 0.188205
0.161129 0.385544 0.191332
0.180389 0.392834 0.194408
0.200110 0.400122 0.197426
0.220297 0.407401 0.200377
0.240952 0.414666 0.203256
0.262080 0.421908 0.206053
0.283682 0.429121 0.208760
0.305764 0.436298 0.211369
0.328328 0.443431 0.213872
0.351378 0.450512 0.216260
0.374919 0.457534 0.218525
0.398953 0.464489 0.220658
0.423485 0.471370 0.222650
0.448518 0.478167 0.224492
0.474057 0.484873 0.226175
0.500107 0.491480 0.227690
0.526671 0.497980 0.229028
0.553753 0.504364 0.230179
0.581359 0.510623 0.231133
0.609493 0.516750 0.231883
0.638160 0.522735 0.232417
0.667366 0.528570 0.232727
0.697114 0.534247 0.232803
0.727412 0.539757 0.232636
0.758264 0.545091 0.232216
0.789676 0.550241 0.231532
0.821654 0.555198 0.230577
0.854205 0.559953 0.229340
0.887334 0.564499 0.227812
0.921049 0.568825 0.225983
0.117921 0.403110 0.192458
0.136502 0.410652 0.195514
0.155535 0.418192 0.198508
0.175021 0.425726 0.201434
0.194966 0.433245 0.204284
0.215371 0.440744 0.207049
0.236241 0.448214 0.209721
0.257578 0.455649 0.212293
0.279387 0.463041 0.214755
0.301670 0.470383 0.217100
0.324431 0.477666 0.219318
0.347674 0.484884 0.221400
0.371404 0.492028 0.223339
0.395622 0.499090 0.225124
0.420334 0.506062 0.226747
0.445544 0.512936 0.228198
0.471256 0.519703 0.229469
0.497474 0.526356 0.230549
0.524203 0.532886 0.231431
0.551446 0.539284 0.232103
0.579211 0.545542 0.232557
0.607500 0.551652 0.232783
0.636319 0.557605 0.232771
0.665674 0.563392 0.232513
0.695570 0.569004 0.231998
0.726013 0.574434 0.231217
0.757008 0.579673 0.230160
0.788562 0.584711 0.228818
0.820681 0.589541 0.227181
0.853372 0.594154 0.225240
0.886641 0.598542 0.222985
0.920496 0.602696 0.220408
0.954944 0.606607 0.217497
0.129168 0.444238 0.202481
0.148393 0.452015 0.205301
0.168068 0.459771 0.208033
0.188196 0.467500 0.210670
0.208781 0.475195 0.213203
0.229825 0.482848 0.215623
0.251332 0.490452 0.217922
0.273305 0.497999 0.220092
0.295748 0.505480 0.222123
0.318665 0.512890 0.224007
0.342060 0.520218 0.225734
0.365935 0.527458 0.227295
0.390296 0.534601 0.228682
0.415146 0.541638 0.229885
0.440489 0.548562 0.230894
0.466331 0.555365 0.231700
0.492674 0.562037 0.232294
0.519525 0.568570 0.232666
0.546888 0.574956 0.232806
0.574768 0.581186 0.232706
0.603169 0.587252 0.232355
0.632099 0.593146 0.231745
0.661561 0.598858 0.230864
0.691563 0.604380 0.229705
0.722110 0.609704 0.228257
0.753208 0.614821 0.226510
0.784863 0.619723 0.224456
0.817084 0.624402 0.222085
0.849876 0.628848 0.219387
0.883246 0.633055 0.216354
0.917203 0.637012 0.212975
0.951754 0.640714 0.209242
0.986907 0.644150 0.205145
0.139544 0.486980 0.211604
0.159367 0.494937 0.214097
0.179637 0.502853 0.216475
0.200359 0.510720 0.218728
0.221535 0.518532 0.220848
0.243169 0.526280 0.222826
0.265264 0.533957 0.224654
0.287825 0.541554 0.226322
0.310854 0.549063 0.227821
0.334356 0.556476 0.229142
0.358335 0.563786 0.230275
0.382794 0.570983 0.231211
0.407738 0.578060 0.231941
0.433171 0.585008 0.232455
0.459098 0.591818 0.232744
0.485524 0.598483 0.232798
0.512454 0.604993 0.232608
0.539892 0.611341 0.232164
0.567845 0.617517 0.231456
0.596316 0.623514 0.230475
0.625314 0.629322 0.229212
0.654842 0.634934 0.227656
0.684908 0.640341 0.225799
0.715517 0.645534 0.223630
0.746677 0.650506 0.221141
0.778395 0.655248 0.218322
0.810677 0.659751 0.215164
0.843531 0.664008 0.211657
0.876964 0.668011 0.207793
0.910986 0.671751 0.203562
0.945603 0.675221 0.198955
0.980825 0.678413 0.193963
1.000000 0.681318 0.188578
0.148746 0.531190 0.219515
0.169116 0.539268 0.221585
0.189931 0.547284 0.223510
0.211196 0.555230 0.225280
0.232913 0.563097 0.226888
0.255086 0.570878 0.228323
0.277720 0.578564 0.229577
0.300817 0.586148 0.230639
0.324381 0.593620 0.231501
0.348418 0.600974 0.232154
0.372931 0.608199 0.232587
0.397925 0.615289 0.232792
0.423403 0.622234 0.232758
0.449373 0.629027 0.232476
0.475837 0.635658 0.231937
0.502801 0.642119 0.231131
0.530272 0.648403 0.230048
0.558253 0.654500 0.228680
0.586752 0.660402 0.227015
0.615775 0.666101 0.225046
0.645327 0.671588 0.222762
0.675416 0.676856 0.220153
0.706048 0.681895 0.217212
0.737230 0.686699 0.213928
0.768969 0.691258 0.210292
0.801274 0.695565 0.206295
0.834152 0.699612 0.201928
0.867611 0.703390 0.197182
0.901660 0.706893 0.192048
0.936308 0.710113 0.186518
0.971564 0.713041 0.180581
1.000000 0.715671 0.174231
1.000000 0.717994 0.167457
0.156454 0.576711 0.225885
0.177319 0.584850 0.227431
0.198626 0.592904 0.228801
0.220381 0.600865 0.229986
0.242587 0.608725 0.230977
0.265247 0.616475 0.231764
0.288366 0.624107 0.232338
0.311949 0.631612 0.232689
0.335998 0.638984 0.232807
0.360519 0.646212 0.232685
0.385517 0.653288 0.232310
0.410997 0.660206 0.231675
0.436963 0.666955 0.230769
0.463421 0.673527 0.229584
0.490376 0.679915 0.228108
0.517835 0.686110 0.226334
0.545803 0.692103 0.224251
0.574287 0.697887 0.221850
0.603293 0.703453 0.219122
0.632828 0.708793 0.216057
0.662898 0.713898 0.212646
0.693512 0.718762 0.208879
0.724676 0.723376 0.204749
0.756399 0.727732 0.200245
0.788689 0.731823 0.195359
0.821553 0.735640 0.190081
0.855002 0.739176 0.184404
0.889043 0.742424 0.178318
0.923687 0.745376 0.171814
0.958942 0.748025 0.164885
0.994818 0.750363 0.157521
1.000000 0.752385 0.149716
1.000000 0.754081 0.141459
0.162335 0.623381 0.230370
0.183639 0.631519 0.231287
0.205385 0.639548 0.231998
0.227577 0.647461 0.232492
0.250218 0.655249 0.232759
0.273313 0.662903 0.232791
0.296866 0.670416 0.232578
0.320882 0.677780 0.232110
0.345366 0.684985 0.231377
0.370323 0.692024 0.230371
0.395758 0.698888 0.229081
0.421676 0.705569 0.227497
0.448084 0.712059 0.225612
0.474986 0.718349 0.223414
0.502390 0.724432 0.220895
0.530302 0.730298 0.218045
0.558728 0.735941 0.214855
0.587676 0.741352 0.211316
0.617152 0.746524 0.207418
0.647164 0.751447 0.203153
0.677721 0.756115 0.198511
0.708829 0.760520 0.193483
0.740497 0.764655 0.188061
0.772734 0.768511 0.182236
0.805549 0.772081 0.175999
0.838952 0.775358 0.169341
0.872951 0.778335 0.162255
0.907556 0.781005 0.154731
0.942778 0.783361 0.146762
0.978627 0.785395 0.138339
1.000000 0.787101 0.129455
1.000000 0.788472 0.120101
1.000000 0.789502 0.110270
0.166043 0.671037 0.232616
0.187733 0.679109 0.232799
0.209863 0.687049 0.232742
0.232438 0.694850 0.232437
0.255461 0.702502 0.231874
0.278939 0.709998 0.231043
0.302876 0.717329 0.229934
0.327277 0.724487 0.228539
0.352147 0.731463 0.226846
0.377492 0.738251 0.224848
0.403318 0.744840 0.222535
0.429631 0.751224 0.219896
0.456437 0.757395 0.216924
0.483743 0.763343 0.213608
0.511556 0.769062 0.209939
0.539884 0.774544 0.205908
0.568732 0.779780 0.201507
0.598110 0.784763 0.196726
0.628024 0.789485 0.191555
0.658484 0.793939 0.185987
0.689498 0.798118 0.180013
0.721075 0.802014 0.173624
0.753224 0.805619 0.166811
0.785954 0.808928 0.159567
0.819276 0.811932 0.151882
0.853199 0.814625 0.143749
0.887734 0.817000 0.135159
0.922891 0.819050 0.126104
0.958682 0.820768 0.116578
0.995117 0.822149 0.106571
1.000000 0.823186 0.096076
1.000000 0.823873 0.085085
1.000000 0.824202 0.073592
0.167228 0.719514 0.232263
0.189249 0.727457 0.231603
0.211710 0.735245 0.230672
0.234616 0.742871 0.229460
0.257971 0.750325 0.227957
0.281782 0.757600 0.226155
0.306053 0.764687 0.224043
0.330792 0.771579 0.221612
0.356002 0.778267 0.218853
0.381692 0.784743 0.215757
0.407866 0.791000 0.212313
0.434533 0.797029 0.208514
0.461700 0.802823 0.204349
0.489372 0.808375 0.199811
0.517559 0.813675 0.194889
0.546269 0.818718 0.189575
0.575508 0.823495 0.183860
0.605287 0.828000 0.177736
0.635613 0.832224 0.171193
0.666497 0.836161 0.164224
0.697946 0.839804 0.156820
0.729972 0.843145 0.148973
0.762583 0.846179 0.140675
0.795791 0.848898 0.131917
0.829606 0.851295 0.122691
0.864039 0.853365 0.112990
0.899102 0.855100 0.102807
0.934805 0.856495 0.092132
0.971161 0.857543 0.080960
1.000000 0.858238 0.069281
1.000000 0.858574 0.057090
1.000000 0.858546 0.044379
1.000000 0.858148 0.031141
0.165536 0.768652 0.228947
0.187835 0.776404 0.227336
0.210576 0.783980 0.225422
0.233762 0.791370 0.223196
0.257401 0.798566 0.220646
0.281498 0.805560 0.217766
0.306059 0.812345 0.214544
0.331091 0.818913 0.210972
0.356600 0.825256 0.207041
0.382593 0.831365 0.202741
0.409079 0.837235 0.198064
0.436064 0.842856 0.193000
0.463555 0.848222 0.187541
0.491563 0.853325 0.181678
0.520094 0.858158 0.175403
0.549157 0.862714 0.168706
0.578763 0.866985 0.161580
0.608919 0.870966 0.154015
0.639636 0.874648 0.146005
0.670923 0.878026 0.137540
0.702792 0.881092 0.128613
0.735252 0.883840 0.119215
0.768314 0.886263 0.109339
0.801990 0.888356 0.098978
0.836292 0.890113 0.088123
0.871230 0.891526 0.076767
0.906817 0.892590 0.064903
0.943066 0.893300 0.052523
0.979990 0.893648 0.039621
1.000000 0.893631 0.026189
1.000000 0.893241 0.012220
1.000000 0.892475 0.000000
1.000000 0.891325 0.000000
0.160612 0.818299 0.222305
0.183140 0.825803 0.219636
0.206112 0.833106 0.216633
0.229533 0.840203 0.213284
0.253410 0.847084 0.209583
0.277750 0.853743 0.205518
0.302559 0.860171 0.201082
0.327845 0.866361 0.196265
0.353615 0.872306 0.191059
0.379878 0.877998 0.185454
0.406640 0.883430 0.179442
0.433911 0.888594 0.173014
0.461700 0.893485 0.166162
0.490015 0.898094 0.158877
0.518865 0.902415 0.151151
0.548261 0.906441 0.142976
0.578212 0.910166 0.134344
0.608728 0.913583 0.125246
0.639821 0.916685 0.115675
0.671500 0.919466 0.105624
0.703777 0.921921 0.095083
0.736663 0.924042 0.084047
0.770171 0.925824 0.072507
0.804311 0.927261 0.060456
0.839098 0.928347 0.047887
0.874542 0.929076 0.034793
0.910659 0.929444 0.021166
0.947459 0.929444 0.007000
0.984958 0.929070 0.000000
1.000000 0.928319 0.000000
